packages/core/src/svgs/tokens/branded/CLS.svg

<svg width="24" height="24" viewBox="0 0 24 24" fill="none" xmlns="http://www.w3.org/2000/svg">
<path d="M12.0023 22C14.1749 21.9994 16.2884 21.2913 18.0229 19.9828C19.7572 18.6742 21.0183 16.8363 21.6152 14.7472C22.2121 12.6582 22.1124 10.4315 21.3311 8.40406C20.5499 6.37669 19.1294 4.65893 17.285 3.51066C15.4405 2.36238 13.2722 1.84609 11.1081 2.03986C8.9441 2.23362 6.90204 3.12693 5.29089 4.58463C3.67975 6.04233 2.58719 7.98509 2.17851 10.1191C1.76982 12.253 2.06725 14.462 3.0258 16.4118L10.4376 11.9941L7.34932 10.2294C7.14438 10.11 6.99444 9.91485 6.93174 9.68618C6.86906 9.45738 6.89859 9.21311 7.01404 9.00588C7.13346 8.80092 7.32853 8.651 7.55731 8.5883C7.78608 8.5256 8.03033 8.55515 8.23757 8.67058L11.414 10.4529V6.88823C11.414 6.4 11.7669 6.11764 12.2553 6.11764C12.7435 6.11764 13.1787 6.4 13.1787 6.88823V10.4529L16.2729 8.67058C16.4801 8.55515 16.7243 8.5256 16.9531 8.5883C17.1819 8.651 17.3769 8.80092 17.4963 9.00588C17.7434 9.42348 17.5846 9.98238 17.1669 10.2294L14.0552 11.9941L17.1494 13.7588C17.567 14 17.7258 14.5412 17.4788 14.9764C17.3865 15.134 17.2493 15.2602 17.0847 15.3389C16.92 15.4175 16.7355 15.445 16.5552 15.4177C16.455 15.4013 16.3591 15.3652 16.2729 15.3117L13.1787 13.5295V17.1118C13.1787 17.6 12.7435 17.8824 12.2553 17.8824C11.7669 17.8824 11.414 17.6 11.414 17.1118V13.5117L3.94346 17.9235C5.76698 20.4 8.70227 22 12.0023 22Z" fill="#0053F1"/>
</svg>

<svg xmlns="http://www.w3.org/2000/svg" width="24" height="24" fill="none" viewBox="0 0 24 24">
    <path fill="#0053F1" d="M12.002 22a10.002 10.002 0 0 0 9.33-13.596 10 10 0 1 0-18.306 8.008l7.412-4.418-3.089-1.765a.906.906 0 0 1-.335-1.223.906.906 0 0 1 1.224-.335l3.176 1.782V6.888c0-.488.353-.77.841-.77s.924.282.924.77v3.565l3.094-1.782a.906.906 0 0 1 1.223.335c.247.417.089.976-.33 1.223l-3.11 1.765 3.093 1.765a.896.896 0 0 1 .33 1.217.91.91 0 0 1-.924.442.8.8 0 0 1-.282-.106l-3.094-1.782v3.582c0 .488-.436.77-.924.77s-.841-.282-.841-.77v-3.6l-7.47 4.412A9.99 9.99 0 0 0 12.001 22"/>
</svg>
